X: 2139
T: BEN LOMOND
C:
Q: "Strathspey."
R: Strathspey.
%R: strathspey
B: James Kerr "Merry Melodies" v.2 p.17 #139
Z: 2016 John Chambers <jc:trillian.mit.edu>
M: C
L: 1/8
K: D
uB |\
vA>uFA<B vA>uFA<d | vB>uAB<d e/e/e e2 |\
vd>vfuf>ud ve>uBud>uA | B<d vA>F D/D/D D :|\
uf |\
va>ufd<f va>ufd<f |
ve>vdue>uf e/e/e (e>f) |\
[1 a>fd<f a>ba<f | {f}e>de>f d/d/d d :|\
[2 vd<ff>ud e>Bd>A | B<d A>F D/D/D D |]
